X: 19172
T: Is Coma Leam Fhin Am Ministear
R: slip jig
M: 9/8
K: Dmajor
|:E|FGA A2 d AFD|F2 A ABc d2 f|
FF/G/A AFd AFD|E2 =c cGE c2:|
|:a|fda f2 b afd|fda fdb g2 b|
[1 f2 a f2 b af/e/d|=c2 c' c'ge g2:|
[2 aa/g/f edc d2 F|E2 =c cGE G2||

